Origami/32x32/apps/outlast.svg

<svg width="32" height="32" version="1.1" viewBox="0 0 32 32" xmlns="http://www.w3.org/2000/svg">
 <path d="m16.5 3c-7.0850674-1.23e-5 -12.499893 6.4903328-12.5 14 1.072e-4 7.509667 5.4149326 14.000012 12.5 14 7.085067 1.2e-5 12.499893-6.490333 12.5-14-1.07e-4 -7.5096672-5.414933-14.000012-12.5-14z" style="opacity:.2"/>
 <path d="m16.5 2c-7.0850674-1.23e-5 -12.499893 6.4903328-12.5 14 1.072e-4 7.509667 5.4149326 14.000012 12.5 14 7.085067 1.2e-5 12.499893-6.490333 12.5-14-1.07e-4 -7.5096672-5.414933-14.000012-12.5-14z" style="fill:#3a4b37"/>
 <path d="m16.5 6a9.4999858 11.000181 0 0 0 -9.5 11 9.4999858 11.000181 0 0 0 9.5 11 9.4999858 11.000181 0 0 0 9.5 -11 9.4999858 11.000181 0 0 0 -9.5 -11zm0 4a4.4998715 6.9999227 0 0 1 4.5 7 4.4998715 6.9999227 0 0 1 -4.5 7 4.4998715 6.9999227 0 0 1 -4.5 -7 4.4998715 6.9999227 0 0 1 4.5 -7z" style="opacity:.2"/>
 <path d="m16.5 5a9.4999858 11.000181 0 0 0 -9.5 11 9.4999858 11.000181 0 0 0 9.5 11 9.4999858 11.000181 0 0 0 9.5 -11 9.4999858 11.000181 0 0 0 -9.5 -11zm0 4a4.4998715 6.9999227 0 0 1 4.5 7 4.4998715 6.9999227 0 0 1 -4.5 7 4.4998715 6.9999227 0 0 1 -4.5 -7 4.4998715 6.9999227 0 0 1 4.5 -7z" style="fill:#a1eaa4"/>
 <path d="m16.5 2c-7.0850674-1.23e-5 -12.499893 6.4903328-12.5 14 2.4e-6 0.16827 0.0160869 0.332815 0.0214844 0.5 0.235486-7.2940554 5.5522041-13.500012 12.478516-13.5 6.926311-1.2e-5 12.24303 6.2059446 12.478516 13.5 0.005397-0.167185 0.021482-0.33173 0.021484-0.5-1.07e-4 -7.5096672-5.414933-14.000012-12.5-14z" style="fill:#ffffff;opacity:.1"/>
 <path d="M 16.5 5 A 9.4999858 11.000181 0 0 0 7 16 A 9.4999858 11.000181 0 0 0 7.0175781 16.414062 A 9.4999858 11.000181 0 0 1 16.5 6 A 9.4999858 11.000181 0 0 1 25.982422 16.585938 A 9.4999858 11.000181 0 0 0 26 16 A 9.4999858 11.000181 0 0 0 16.5 5 z M 20.984375 16.457031 A 4.4998715 6.9999227 0 0 1 16.5 23 A 4.4998715 6.9999227 0 0 1 12.015625 16.542969 A 4.4998715 6.9999227 0 0 0 12 17 A 4.4998715 6.9999227 0 0 0 16.5 24 A 4.4998715 6.9999227 0 0 0 21 17 A 4.4998715 6.9999227 0 0 0 20.984375 16.457031 z" style="fill:#ffffff;opacity:.1"/>
</svg>

<svg xmlns="http://www.w3.org/2000/svg" width="32" height="32" version="1.1" viewBox="0 0 32 32">
 <path style="opacity:0.2" d="M 16.5,3 C 9.4149326,2.9999877 4.0001072,9.4903328 4,17 4.0001072,24.509667 9.4149326,31.000012 16.5,31 23.585067,31.000012 28.999893,24.509667 29,17 28.999893,9.4903328 23.585067,2.9999877 16.5,3 Z"/>
 <path style="fill:#3a4b37" d="M 16.5,2 C 9.4149326,1.9999877 4.0001072,8.4903328 4,16 4.0001072,23.509667 9.4149326,30.000012 16.5,30 23.585067,30.000012 28.999893,23.509667 29,16 28.999893,8.4903328 23.585067,1.9999877 16.5,2 Z"/>
 <path style="opacity:0.2" d="M 16.5,6 A 9.4999858,11.000181 0 0 0 7,17 9.4999858,11.000181 0 0 0 16.5,28 9.4999858,11.000181 0 0 0 26,17 9.4999858,11.000181 0 0 0 16.5,6 Z m 0,4 a 4.4998715,6.9999227 0 0 1 4.5,7 4.4998715,6.9999227 0 0 1 -4.5,7 4.4998715,6.9999227 0 0 1 -4.5,-7 4.4998715,6.9999227 0 0 1 4.5,-7 z"/>
 <path style="fill:#a1eaa4" d="M 16.5 5 A 9.4999858 11.000181 0 0 0 7 16 A 9.4999858 11.000181 0 0 0 16.5 27 A 9.4999858 11.000181 0 0 0 26 16 A 9.4999858 11.000181 0 0 0 16.5 5 z M 16.5 9 A 4.4998715 6.9999227 0 0 1 21 16 A 4.4998715 6.9999227 0 0 1 16.5 23 A 4.4998715 6.9999227 0 0 1 12 16 A 4.4998715 6.9999227 0 0 1 16.5 9 z"/>
 <path style="opacity:0.1;fill:#ffffff" d="M 16.5 2 C 9.4149326 1.9999877 4.0001072 8.4903328 4 16 C 4.0000024 16.16827 4.0160869 16.332815 4.0214844 16.5 C 4.2569704 9.2059446 9.5736885 2.999988 16.5 3 C 23.426311 2.999988 28.74303 9.2059446 28.978516 16.5 C 28.983913 16.332815 28.999998 16.16827 29 16 C 28.999893 8.4903328 23.585067 1.9999877 16.5 2 z"/>
 <path style="opacity:0.1;fill:#ffffff" d="M 16.5 5 A 9.4999858 11.000181 0 0 0 7 16 A 9.4999858 11.000181 0 0 0 7.0175781 16.414062 A 9.4999858 11.000181 0 0 1 16.5 6 A 9.4999858 11.000181 0 0 1 25.982422 16.585938 A 9.4999858 11.000181 0 0 0 26 16 A 9.4999858 11.000181 0 0 0 16.5 5 z M 20.984375 16.457031 A 4.4998715 6.9999227 0 0 1 16.5 23 A 4.4998715 6.9999227 0 0 1 12.015625 16.542969 A 4.4998715 6.9999227 0 0 0 12 17 A 4.4998715 6.9999227 0 0 0 16.5 24 A 4.4998715 6.9999227 0 0 0 21 17 A 4.4998715 6.9999227 0 0 0 20.984375 16.457031 z"/>
</svg>
